vendor/shopware/storefront/Resources/app/storefront/dist/assets/icon/solid/plus.svg

<svg xmlns="http://www.w3.org/2000/svg" width="16" height="16" viewBox="0 0 16 16">
  <path fill="#758CA3" fill-rule="evenodd" d="M7,7 L7,3 C7,2.44771525 7.44771525,2 8,2 C8.55228475,2 9,2.44771525 9,3 L9,7 L13,7 C13.5522847,7 14,7.44771525 14,8 C14,8.55228475 13.5522847,9 13,9 L9,9 L9,13 C9,13.5522847 8.55228475,14 8,14 C7.44771525,14 7,13.5522847 7,13 L7,9 L3,9 C2.44771525,9 2,8.55228475 2,8 C2,7.44771525 2.44771525,7 3,7 L7,7 Z"/>
</svg>

<svg xmlns="http://www.w3.org/2000/svg" width="16" height="16" viewBox="0 0 16 16"><path fill="#758CA3" fill-rule="evenodd" d="M7 7V3c0-.5523.4477-1 1-1s1 .4477 1 1v4h4c.5523 0 1 .4477 1 1s-.4477 1-1 1H9v4c0 .5523-.4477 1-1 1s-1-.4477-1-1V9H3c-.5523 0-1-.4477-1-1s.4477-1 1-1h4z"/></svg>
